X: 36972
T: Shule Aroon
R: reel
M: 4/4
K: Gminor
Bc|d2 d2 c3/2B/ G3/2F/|G2 G2 G3 A|B2 G2 f2 d2|cd/c/ BG F3 G|
G3 A B2 c/d//c//B/A/|G2 G2 G2 Bc|d4 e/d/c Bd|c4 cB GF|G8|
d3 e d/c/ B3|G2 G2 G4|B2 G2 f/f3/2 dc|c/d/c BG F4|G2 A/B3/2 B/B3/2 cB|
G2 G2 G2 Bc|d4 e/d/c Bd|c4 cB GF|G6 z2|

